localPackages/DesignSystem/Sources/DesignSystem/Resources/Assets.xcassets/IconSet/ic-link-slash.imageset/ic-link-slash.svg

<svg width="24" height="24" viewBox="0 0 24 24" fill="none" xmlns="http://www.w3.org/2000/svg">
<g id="ic-link-slash">
<path id="Icon" fill-rule="evenodd" clip-rule="evenodd" d="M22.2815 22.1959C21.988 22.4882 21.5122 22.4882 21.2187 22.1959L11.4687 12.4861L1.71866 2.77622C1.42516 2.48393 1.42516 2.01004 1.71866 1.71775C2.01215 1.42546 2.48801 1.42546 2.7815 1.71775L12.0001 10.8984L14.12 8.78715C14.4135 8.49487 14.8894 8.49487 15.1829 8.78715C15.4764 9.07944 15.4764 9.55334 15.1829 9.84562L13.0629 11.9568L22.2815 21.1375C22.575 21.4297 22.575 21.9036 22.2815 22.1959ZM13.5337 3.03321C15.5845 0.990799 18.9096 0.990797 20.9605 3.03321C23.0113 5.07562 23.0113 8.38702 20.9605 10.4294L17.3046 14.0702C17.0111 14.3625 16.5352 14.3625 16.2417 14.0702C15.9483 13.778 15.9483 13.3041 16.2417 13.0118L19.8976 9.37096C21.3615 7.91313 21.3615 5.54951 19.8976 4.09168C18.4338 2.63384 16.0604 2.63385 14.5965 4.09168L10.9406 7.73249C10.6471 8.02478 10.1713 8.02478 9.87779 7.73249C9.58429 7.4402 9.58429 6.96631 9.87779 6.67402L13.5337 3.03321ZM10.8129 14.1976L10.2815 14.7268L9.87874 15.1279C9.58524 15.4202 9.10939 15.4202 8.81589 15.1279C8.5224 14.8356 8.5224 14.3617 8.81589 14.0694L9.21866 13.6683L9.75008 13.1391L10.8129 14.1976ZM3.13721 20.9704C5.14464 22.9695 8.38428 23.0172 10.4501 21.0779L13.6305 18.0922L14.1774 17.5788L13.1464 16.4895L12.5995 17.0029L9.41906 19.9886C7.94476 21.3726 5.63271 21.3387 4.20005 19.9119C2.70633 18.4243 2.74223 16.0017 4.27939 14.5587L7.26656 11.7544L7.81343 11.241L6.78242 10.1518L6.23554 10.6652L3.24837 13.4694C1.09451 15.4914 1.0442 18.886 3.13721 20.9704Z" fill="#0F0F0F"/>
</g>
</svg>

<svg xmlns="http://www.w3.org/2000/svg" width="24" height="24" viewBox="0 0 24 24">
  <g class="ic-link-slash">
    <path fill-rule="evenodd" d="M22.283 22.195a.754.754 0 0 1-1.063 0l-9.75-9.71-9.75-9.71a.746.746 0 0 1 0-1.058.754.754 0 0 1 1.063 0l9.218 9.18 2.12-2.11a.754.754 0 0 1 1.063 0 .746.746 0 0 1 0 1.058l-2.12 2.111 9.219 9.181a.746.746 0 0 1 0 1.058ZM13.535 3.033a5.267 5.267 0 0 1 7.427 0 5.215 5.215 0 0 1 0 7.396l-3.656 3.64a.754.754 0 0 1-1.063 0 .746.746 0 0 1 0-1.058l3.656-3.64a3.722 3.722 0 0 0 0-5.28 3.76 3.76 0 0 0-5.301 0l-3.656 3.641a.754.754 0 0 1-1.063 0 .746.746 0 0 1 0-1.058l3.656-3.641Zm-2.72 11.164-.532.53-.403.4a.754.754 0 0 1-1.063 0 .746.746 0 0 1 0-1.058l.403-.401.532-.53 1.062 1.06ZM3.138 20.97a5.265 5.265 0 0 0 7.313.107l3.18-2.985.547-.514-1.031-1.089-.547.513-3.18 2.986a3.757 3.757 0 0 1-5.22-.077 3.72 3.72 0 0 1 .08-5.353l2.987-2.804.547-.513-1.031-1.09-.547.514-2.987 2.804a5.213 5.213 0 0 0-.111 7.5Z" class="Icon"/>
  </g>
</svg>
